Newaita/actions/22/media-repeat-album-amarok.svg

<svg height="22" viewBox="0 0 22 22" width="22" xmlns="http://www.w3.org/2000/svg"><g fill="#424242"><path d="m5.914062 20.183594-3.183593-4.546875h2.273437v-13.191407c0-.25.203125-.453124.453125-.453124h.910157c.25 0 .453124.203124.453124.453124v13.191407h2.277344zm0 0"/><path d="m15.917969 1.992188-3.183594 4.546874h2.273437v13.1875c0 .253907.203126.457032.457032.457032h.90625c.253906 0 .457031-.203125.457031-.457032v-13.1875h2.273437zm0 0"/><path d="m10.914062 8.359375c-1.511718 0-2.726562 1.214844-2.726562 2.726563 0 1.511718 1.214844 2.730468 2.726562 2.730468 1.511719 0 2.730469-1.21875 2.730469-2.730468 0-1.511719-1.21875-2.726563-2.730469-2.726563zm0 .910156c1.007813 0 1.820313.808594 1.820313 1.816407 0 1.007812-.8125 1.820312-1.820313 1.820312-1.007812 0-1.816406-.8125-1.816406-1.820312 0-1.007813.808594-1.816407 1.816406-1.816407zm0 0"/></g></svg>

<?xml version="1.0" encoding="UTF-8"?>
<svg xmlns="http://www.w3.org/2000/svg" xmlns:xlink="http://www.w3.org/1999/xlink" width="22px" height="22px" viewBox="0 0 22 22" version="1.1">
<g id="surface1">
<path style=" stroke:none;fill-rule:nonzero;fill:rgb(25.882354%,25.882354%,25.882354%);fill-opacity:1;" d="M 5.914062 20.183594 L 2.730469 15.636719 L 5.003906 15.636719 L 5.003906 2.445312 C 5.003906 2.195312 5.207031 1.992188 5.457031 1.992188 L 6.367188 1.992188 C 6.617188 1.992188 6.820312 2.195312 6.820312 2.445312 L 6.820312 15.636719 L 9.097656 15.636719 Z M 5.914062 20.183594 "/>
<path style=" stroke:none;fill-rule:nonzero;fill:rgb(25.882354%,25.882354%,25.882354%);fill-opacity:1;" d="M 15.917969 1.992188 L 12.734375 6.539062 L 15.007812 6.539062 L 15.007812 19.726562 C 15.007812 19.980469 15.210938 20.183594 15.464844 20.183594 L 16.371094 20.183594 C 16.625 20.183594 16.828125 19.980469 16.828125 19.726562 L 16.828125 6.539062 L 19.101562 6.539062 Z M 15.917969 1.992188 "/>
<path style=" stroke:none;fill-rule:nonzero;fill:rgb(25.882354%,25.882354%,25.882354%);fill-opacity:1;" d="M 10.914062 8.359375 C 9.402344 8.359375 8.1875 9.574219 8.1875 11.085938 C 8.1875 12.597656 9.402344 13.816406 10.914062 13.816406 C 12.425781 13.816406 13.644531 12.597656 13.644531 11.085938 C 13.644531 9.574219 12.425781 8.359375 10.914062 8.359375 Z M 10.914062 9.269531 C 11.921875 9.269531 12.734375 10.078125 12.734375 11.085938 C 12.734375 12.09375 11.921875 12.90625 10.914062 12.90625 C 9.90625 12.90625 9.097656 12.09375 9.097656 11.085938 C 9.097656 10.078125 9.90625 9.269531 10.914062 9.269531 Z M 10.914062 9.269531 "/>
</g>
</svg>
